X:195
T:OSBORNE'S 2000 Millenium Waltz
C:Bruce Osborne  --  Jan.16 2000
M:3/4
R:Waltz
L:1/8
Z:abc by Bruce Osborne - bosborne@kos.net
K:D
Ad|f3 efg|f2e2d2|FAd efe|d4FA|!
d4 dd|e2d2A2|c3 Bcd|c4EF|!
G3 FGA|e3 fed|c3 dcB|A4 (3AAA|!
A4AA|(3BcBA2G2|F3 EFG|F4Ad|!
f3 efg|f2e2d2|FAd efe|d2d2FA|!
d4dd|e2d2c2|B3 ABc|B4Bc|!
d4ed|c4B2|A2F4-|F4F2|!
A4GF|E3 DCE|D3 CDE|D4:|!
|:FA|d2d2FA|fed2FA|d2d cdA|E4CD|!
E2E FED|CEA2AB|cBA GF^E|F4FA|!
d2d2FA|fed2FA|d2d fed|B3 ABc|!
d2d2cd|e3 dcd|f2d2B2|A3 A^GA|!
B3 B^AB|c2B2A2|d2d cde|d4:|!
